img/bag.svg

<svg width="50" height="50" viewBox="0 0 50 50" fill="none" xmlns="http://www.w3.org/2000/svg">
<g clip-path="url(#clip0)">
<path d="M36.7383 25.0977H12.793V31.2402H36.7383V25.0977Z" fill="url(#paint0_linear)"/>
<path d="M36.7383 31.2402H12.793V37.3828H36.7383V31.2402Z" fill="url(#paint1_linear)"/>
<path d="M36.7383 37.373H12.793V43.5156H36.7383V37.373Z" fill="url(#paint2_linear)"/>
<path d="M45.1077 46.582C45.1175 46.5723 45.1175 46.5723 45.1175 46.5625C45.1175 46.5527 45.1272 46.5527 45.1272 46.5527C45.137 46.543 45.137 46.5332 45.1467 46.5332L45.1565 46.5137C45.1565 46.5039 45.1663 46.5039 45.1663 46.4941L45.176 46.4746C45.176 46.4648 45.1858 46.4648 45.1858 46.4551C45.1858 46.4453 45.1956 46.4355 45.1956 46.4355C45.1956 46.4258 45.1956 46.4258 45.2053 46.416C45.2053 46.4062 45.2053 46.3965 45.2151 46.3965V46.377C45.2151 46.3672 45.2151 46.3574 45.2151 46.3574C45.2151 46.3477 45.2151 46.3379 45.2151 46.3379V46.3184C45.2151 46.3086 45.2151 46.2988 45.2151 46.2988V46.2793L43.2424 12.6953L43.2229 12.5977L43.5061 12.5098L43.2229 12.5879L43.1839 12.5C43.1839 12.4902 43.1741 12.4902 43.1741 12.4805L43.1643 12.4707C43.1643 12.4609 43.1546 12.4609 43.1448 12.4512L43.135 12.4414C43.1253 12.4316 43.1253 12.4219 43.1155 12.4121L43.1057 12.4023C43.1057 12.4023 43.096 12.3926 43.0862 12.3926L43.0764 12.3828C43.0667 12.373 43.0569 12.3633 43.0471 12.3633H43.0374C43.0276 12.3535 43.0178 12.3438 42.9983 12.3438L42.9885 12.334C42.9788 12.334 42.969 12.3242 42.9592 12.3242H42.9495C42.9397 12.3242 42.93 12.3145 42.9202 12.3145L42.9007 12.3047C42.8909 12.3047 42.8909 12.3047 42.8811 12.2949H42.8714C42.8518 12.2949 42.8421 12.2949 42.8323 12.2852H42.8225C42.8128 12.2852 42.803 12.2852 42.7932 12.2852H42.7737H32.3538V6.21094C32.3538 2.96875 29.7171 0.332031 26.4749 0.332031C24.1507 0.332031 22.0413 1.70898 21.094 3.83789L21.0549 3.93555L20.9573 3.98437C18.9358 4.96094 17.6272 7.04102 17.6272 9.28711V12.2949H10.1663C10.1565 12.2949 10.137 12.2949 10.1272 12.2949L9.9612 12.3438L9.89284 12.3926C9.88307 12.4023 9.86354 12.4121 9.85378 12.4219L6.88503 15.4004C6.87526 15.4102 6.87526 15.4102 6.8655 15.4199L6.85573 15.4395C6.84596 15.4492 6.84597 15.4492 6.84597 15.459L6.8362 15.4785C6.8362 15.4785 6.82643 15.4883 6.82643 15.498C6.82643 15.5078 6.81667 15.5078 6.81667 15.5176C6.81667 15.5273 6.8069 15.5273 6.8069 15.5371C6.8069 15.5469 6.79714 15.5469 6.79714 15.5566L6.78737 15.5957C6.78737 15.6055 6.78737 15.6152 6.77761 15.6152C6.77761 15.625 6.77761 15.6348 6.77761 15.6348C6.77761 15.6445 6.77761 15.6445 6.77761 15.6543C6.77761 15.6641 6.77761 15.6738 6.77761 15.6738V15.6934L4.80495 49.2871C4.79518 49.4141 4.84401 49.5312 4.92214 49.6191C5.01003 49.707 5.12721 49.7559 5.2444 49.7559H41.7971C41.8069 49.7559 41.8264 49.7559 41.8362 49.7559L41.9632 49.7266L42.0706 49.668C42.0803 49.6582 42.0901 49.6484 42.0999 49.6387L42.1096 49.6289L45.0784 46.6602C45.0979 46.5918 45.0979 46.5918 45.1077 46.582ZM41.7092 13.1445L39.6389 15.2148H29.4046V13.1445H41.7092ZM22.7346 2.90039C23.6819 1.81641 25.0491 1.19141 26.4846 1.19141C29.2385 1.19141 31.4749 3.42773 31.4749 6.18164V12.2559H29.4046V9.24805C29.4046 6.00586 26.7678 3.36914 23.5257 3.36914C23.3499 3.36914 23.1741 3.37891 22.9885 3.39844L22.2561 3.4668L22.7346 2.90039ZM21.4944 6.17188C21.4944 5.67383 21.5725 5.18555 21.7092 4.70703L21.7483 4.56055L21.885 4.51172C22.4124 4.33594 22.9495 4.23828 23.5061 4.23828C26.26 4.23828 28.4964 6.47461 28.4964 9.22852V12.2363H21.4846V6.17188H21.4944ZM28.5061 13.1445V15.2148H18.5354V13.1445H28.5061ZM18.5354 9.23828C18.5354 7.86133 19.1116 6.5332 20.1272 5.5957L20.6643 5.09766L20.6253 5.83008C20.6155 5.95703 20.6155 6.07422 20.6155 6.18164V12.2559H18.5452V9.23828H18.5354ZM10.3616 13.1445H17.637V15.2148H8.30104L10.3616 13.1445ZM41.6116 48.8086H5.71315L7.63698 16.1035H17.637V20.5957C17.637 20.8398 17.8421 21.0449 18.0862 21.0449C18.3303 21.0449 18.5354 20.8398 18.5354 20.5957V16.1035H28.5061V20.5957C28.5061 20.8398 28.7112 21.0449 28.9553 21.0449C29.1995 21.0449 29.4046 20.8398 29.4046 20.5957V16.1035H39.4046L41.1819 46.3184C41.1917 46.5625 41.4065 46.748 41.6604 46.7383C41.7776 46.7285 41.885 46.6797 41.9729 46.5918C42.0608 46.5039 42.0901 46.3867 42.0901 46.2695L40.303 15.8398L42.4221 13.7207L44.3264 46.123L41.6116 48.8086Z" fill="#231F20"/>
<path d="M18.6426 36.8555L23.8672 42.0801C23.9551 42.1582 24.0625 42.207 24.1797 42.207C24.2969 42.207 24.4141 42.1582 24.4922 42.0801L31.4551 35.1172C31.5625 35.0098 31.6699 34.8926 31.7773 34.7754C32.5879 33.8086 33.0273 32.5879 33.0273 31.3281C33.0273 30.6348 32.8906 29.9512 32.6367 29.3066C32.3633 28.6426 31.9727 28.0469 31.4551 27.5293C30.9473 27.0215 30.3418 26.6211 29.6777 26.3477C29.0332 26.084 28.3594 25.957 27.6562 25.957C27.0605 25.957 26.4844 26.0547 25.9277 26.2402C25.3613 26.4355 24.834 26.7188 24.3555 27.0898L24.1797 27.2266L24.0039 27.0898C23.5254 26.7188 22.998 26.4355 22.4316 26.2402C21.875 26.0547 21.2988 25.957 20.7129 25.957C20.0098 25.957 19.3262 26.0938 18.6914 26.3477C18.0273 26.6211 17.4316 27.0117 16.9141 27.5293C16.3965 28.0469 16.0059 28.6426 15.7324 29.3066C15.4688 29.9512 15.3418 30.6348 15.3418 31.3281C15.3418 31.9141 15.4395 32.4902 15.6152 33.0371C15.8008 33.6035 16.084 34.1309 16.4453 34.5996C16.5332 34.707 16.6602 34.7754 16.7969 34.7754C16.8945 34.7754 16.9922 34.7461 17.0703 34.6777C17.2656 34.5312 17.3047 34.248 17.1484 34.0527C16.8457 33.6621 16.6113 33.2227 16.4551 32.7539C16.2988 32.2949 16.2207 31.8164 16.2207 31.3281C16.2207 30.1367 16.6895 29.0137 17.5293 28.1641C18.3691 27.3242 19.4922 26.8555 20.6934 26.8555C21.8848 26.8555 23.0078 27.3242 23.8574 28.1641C23.9453 28.252 24.0527 28.291 24.1699 28.291C24.2871 28.291 24.4043 28.2422 24.4824 28.1641C25.332 27.3145 26.4551 26.8555 27.6465 26.8555C28.8379 26.8555 29.9609 27.3242 30.8105 28.1641C31.6504 29.0137 32.1191 30.1367 32.1191 31.3281C32.1191 32.3828 31.748 33.3984 31.0742 34.1992C30.9863 34.3066 30.8984 34.4043 30.8105 34.4922L24.1699 41.1328L19.1895 36.1328C19.1016 36.0449 18.9941 36.0059 18.877 36.0059C18.7598 36.0059 18.6426 36.0547 18.5547 36.1328C18.4668 36.2207 18.4277 36.3281 18.4277 36.4453C18.4277 36.5625 18.4766 36.6797 18.5547 36.7578L18.6426 36.8555Z" fill="black"/>
</g>
<defs>
<linearGradient id="paint0_linear" x1="36.7447" y1="28.1683" x2="12.796" y2="28.1683" gradientUnits="userSpaceOnUse">
<stop stop-color="#131313"/>
<stop offset="1" stop-color="#303030"/>
</linearGradient>
<linearGradient id="paint1_linear" x1="36.7447" y1="34.3065" x2="12.796" y2="34.3065" gradientUnits="userSpaceOnUse">
<stop stop-color="#E2173E"/>
<stop offset="1" stop-color="#FF2257"/>
</linearGradient>
<linearGradient id="paint2_linear" x1="36.7447" y1="40.4447" x2="12.796" y2="40.4447" gradientUnits="userSpaceOnUse">
<stop stop-color="#FFAB31"/>
<stop offset="1" stop-color="#FFCA55"/>
</linearGradient>
<clipPath id="clip0">
<rect width="50" height="50" fill="white"/>
</clipPath>
</defs>
</svg>

<svg width="50" height="50" fill="none" xmlns="http://www.w3.org/2000/svg"><g clip-path="url(#clip0)"><path d="M36.738 25.098H12.793v6.142h23.945v-6.142z" fill="url(#paint0_linear)"/><path d="M36.738 31.24H12.793v6.143h23.945V31.24z" fill="url(#paint1_linear)"/><path d="M36.738 37.373H12.793v6.143h23.945v-6.143z" fill="url(#paint2_linear)"/><path d="M45.108 46.582c.01-.01.01-.01.01-.02s.01-.01.01-.01c.009-.009.009-.019.019-.019l.01-.02c0-.01.01-.01.01-.019l.009-.02c0-.01.01-.01.01-.019 0-.01.01-.02.01-.02 0-.01 0-.01.01-.019 0-.01 0-.02.01-.02v-.117l-1.974-33.584-.02-.097.284-.088-.283.078-.04-.088c0-.01-.009-.01-.009-.02l-.01-.01c0-.01-.01-.01-.02-.019l-.009-.01c-.01-.01-.01-.02-.02-.029l-.01-.01s-.009-.01-.019-.01l-.01-.01c-.01-.009-.02-.019-.029-.019h-.01c-.01-.01-.02-.02-.039-.02l-.01-.009c-.01 0-.019-.01-.029-.01h-.01c-.01 0-.019-.01-.029-.01l-.02-.01c-.01 0-.01 0-.019-.01h-.01c-.02 0-.029 0-.039-.009H32.353V6.211A5.885 5.885 0 0026.476.332a5.898 5.898 0 00-5.381 3.506l-.04.098-.097.048a5.923 5.923 0 00-3.33 5.303v3.008h-7.5l-.166.049-.068.049c-.01.01-.03.02-.04.029L6.886 15.4l-.02.02-.01.02c-.009.01-.009.01-.009.019l-.01.02s-.01.01-.01.019c0 .01-.01.01-.01.02s-.01.01-.01.02c0 .009-.009.009-.009.019l-.01.039c0 .01 0 .02-.01.02v.078L4.806 49.286a.448.448 0 00.117.332.46.46 0 00.322.137h36.592l.126-.03.108-.058.029-.03.01-.01 2.968-2.968c.02-.068.02-.068.03-.078zm-3.399-33.438l-2.07 2.07H29.405v-2.07h12.304zM22.735 2.9a4.985 4.985 0 013.75-1.709 4.993 4.993 0 014.99 4.99v6.075h-2.07V9.248a5.885 5.885 0 00-5.88-5.879c-.175 0-.35.01-.537.03l-.732.068.479-.567zm-1.24 3.272c0-.498.078-.986.214-1.465l.04-.146.136-.05a5.09 5.09 0 011.621-.273 4.993 4.993 0 014.99 4.99v3.008h-7.011V6.172h.01zm7.011 6.973v2.07h-9.97v-2.07h9.97zm-9.97-3.907c0-1.377.576-2.705 1.591-3.642l.537-.498-.039.732c-.01.127-.01.244-.01.352v6.074h-2.07V9.238h-.01zm-8.174 3.907h7.275v2.07H8.301l2.06-2.07zm31.25 35.664H5.713l1.924-32.706h10v4.493c0 .244.205.449.45.449a.454.454 0 00.448-.45v-4.491h9.971v4.492c0 .244.205.449.45.449a.454.454 0 00.449-.45v-4.491h10l1.777 30.214a.45.45 0 00.478.42.493.493 0 00.313-.146.44.44 0 00.117-.322l-1.787-30.43 2.12-2.12 1.903 32.403-2.714 2.686z" fill="#231F20"/><path d="M18.643 36.855l5.224 5.225a.47.47 0 00.313.127.452.452 0 00.312-.127l6.963-6.963c.108-.107.215-.224.322-.342a5.362 5.362 0 001.25-3.447c0-.693-.136-1.377-.39-2.021a5.392 5.392 0 00-2.96-2.96 5.436 5.436 0 00-3.75-.107 5.458 5.458 0 00-1.572.85l-.175.137-.176-.137a5.459 5.459 0 00-1.572-.85 5.42 5.42 0 00-1.72-.283c-.702 0-1.386.137-2.02.39a5.394 5.394 0 00-2.959 2.959 5.322 5.322 0 00-.391 2.022c0 .586.098 1.162.273 1.71a5.23 5.23 0 00.83 1.562.459.459 0 00.352.175.41.41 0 00.273-.097.44.44 0 00.078-.625 4.382 4.382 0 01-.693-1.3 4.48 4.48 0 011.074-4.59 4.446 4.446 0 013.164-1.308 4.48 4.48 0 013.164 1.31.452.452 0 00.625 0 4.44 4.44 0 013.164-1.31 4.48 4.48 0 013.165 1.31 4.48 4.48 0 011.308 3.163c0 1.055-.371 2.07-1.045 2.871a3.97 3.97 0 01-.264.293l-6.64 6.64-4.98-5a.428.428 0 00-.313-.126.495.495 0 00-.322.127.452.452 0 000 .625l.088.097z" fill="#000"/></g><defs><linearGradient id="paint0_linear" x1="36.745" y1="28.168" x2="12.796" y2="28.168" gradientUnits="userSpaceOnUse"><stop stop-color="#131313"/><stop offset="1" stop-color="#303030"/></linearGradient><linearGradient id="paint1_linear" x1="36.745" y1="34.306" x2="12.796" y2="34.306" gradientUnits="userSpaceOnUse"><stop stop-color="#E2173E"/><stop offset="1" stop-color="#FF2257"/></linearGradient><linearGradient id="paint2_linear" x1="36.745" y1="40.445" x2="12.796" y2="40.445" gradientUnits="userSpaceOnUse"><stop stop-color="#FFAB31"/><stop offset="1" stop-color="#FFCA55"/></linearGradient><clipPath id="clip0"><path fill="#fff" d="M0 0h50v50H0z"/></clipPath></defs></svg>
